X: 8036
T: Connie Flemming's
R: polka
M: 2/4
K: Gmajor
|:G2 G>A|BA Bd|B2 B/c/B/A/|GE ED|
G2 G>A|BG Bd|e/f/g fa|1 g2 gD:|2 g2 g>f||
|:ea af|gf ed|B2 B/c/B/A/|GE ED|
G2 G>A|BG Bd|e/f/g fa|1 g2 g>f:|2 g2 g2||

